packages/core/icons/tp-type-square.svg

<svg viewBox="0 0 24 24">
  <title>type-square</title>
  <style>
    :host {
      --stroke: var(--tp-color-neutral-10);
      --stroke-width: 2;
    }

    :host {
      font-size: 24px;
      stroke: inherit;
    }

    :host path {
      stroke: var(--stroke);
      stroke-width: var(--stroke-width);
      fill: none;
      stroke-linecap: round;
      stroke-linejoin: round;
    }

    :host(.ion-color) path {
      --stroke: var(--ion-color-base) !important;
    }

    :host([tp-size='sm']) {
      /* --stroke-width: 1.5; */
      font-size: 16px;
    }

    :host([tp-size='md']) {
      /* --stroke-width: 3; */
      font-size: 32px;
    }

    :host([tp-size='lg']) {
      /* --stroke-width: 4; */
      font-size: 48px;
    }
  </style>
  <path d="M6 10C6 10.5523 6.44772 11 7 11C7.55228 11 8 10.5523 8 10H6ZM7 7V6C6.44772 6 6 6.44772 6 7H7ZM17 7H18C18 6.44772 17.5523 6 17 6V7ZM16 10C16 10.5523 16.4477 11 17 11C17.5523 11 18 10.5523 18 10H16ZM9 16C8.44772 16 8 16.4477 8 17C8 17.5523 8.44772 18 9 18V16ZM15 18C15.5523 18 16 17.5523 16 17C16 16.4477 15.5523 16 15 16V18ZM13 7C13 6.44772 12.5523 6 12 6C11.4477 6 11 6.44772 11 7H13ZM11 17C11 17.5523 11.4477 18 12 18C12.5523 18 13 17.5523 13 17H11ZM8 10V7H6V10H8ZM7 8H17V6H7V8ZM16 7V10H18V7H16ZM9 18H15V16H9V18ZM11 7V17H13V7H11ZM5 4H19V2H5V4ZM20 5V19H22V5H20ZM19 20H5V22H19V20ZM4 19V5H2V19H4ZM5 20C4.44772 20 4 19.5523 4 19H2C2 20.6569 3.34315 22 5 22V20ZM20 19C20 19.5523 19.5523 20 19 20V22C20.6569 22 22 20.6569 22 19H20ZM19 4C19.5523 4 20 4.44772 20 5H22C22 3.34315 20.6569 2 19 2V4ZM5 2C3.34315 2 2 3.34315 2 5H4C4 4.44772 4.44772 4 5 4V2Z"/>
</svg>

<svg viewBox="0 0 24 24">
  <title>type-square</title>
  <style>
    :host {
      --stroke: var(--tp-color-neutral-10);
      --stroke-width: 2;
    }

    :host {
      font-size: 24px;
      stroke: inherit;
    }

    :host path {
      stroke: none;
      stroke-width: var(--stroke-width);
      fill: var(--stroke);
      stroke-linecap: round;
      stroke-linejoin: round;
    }

    :host(.ion-color) path {
      --stroke: var(--ion-color-base) !important;
    }

    :host([tp-size='sm']) {
      /* --stroke-width: 1.5; */
      font-size: 16px;
    }

    :host([tp-size='md']) {
      /* --stroke-width: 3; */
      font-size: 32px;
    }

    :host([tp-size='lg']) {
      /* --stroke-width: 4; */
      font-size: 48px;
    }
  </style>
  <path d="M6 10c0 0.552 0.448 1 1 1s1-0.448 1-1h-2zM7 7v-1c-0.552 0-1 0.448-1 1h1zM17 7h1c0-0.552-0.448-1-1-1v1zM16 10c0 0.552 0.448 1 1 1s1-0.448 1-1h-2zM9 16c-0.552 0-1 0.448-1 1s0.448 1 1 1v-2zM15 18c0.552 0 1-0.448 1-1s-0.448-1-1-1v2zM13 7c0-0.552-0.448-1-1-1s-1 0.448-1 1h2zM11 17c0 0.552 0.448 1 1 1s1-0.448 1-1h-2zM8 10v-3h-2v3h2zM7 8h10v-2h-10v2zM16 7v3h2v-3h-2zM9 18h6v-2h-6v2zM11 7v10h2v-10h-2zM5 4h14v-2h-14v2zM20 5v14h2v-14h-2zM19 20h-14v2h14v-2zM4 19v-14h-2v14h2zM5 20c-0.552 0-1-0.448-1-1h-2c0 1.657 1.343 3 3 3v-2zM20 19c0 0.552-0.448 1-1 1v2c1.657 0 3-1.343 3-3h-2zM19 4c0.552 0 1 0.448 1 1h2c0-1.657-1.343-3-3-3v2zM5 2c-1.657 0-3 1.343-3 3h2c0-0.552 0.448-1 1-1v-2z"></path>
</svg>
